X:147
T:High Caul Cap,aka. RHu.144d
T:Donkey Riding,aka. RHu.144d
T:Cockleshells,aka. RHu.144d
T:Highland Laddie,aka. RHu.144d
T:Lass of Livingstone,aka. RHu.144d
T:Scotch Set Of Quadrilles.#4. RHu.144d
S:R.Hughes MS,1823,Whitchurch,Shrops.
A:Whitchurch, Shropshire
Z:Tony Weatherall 2006
M:2/4
L:1/8
Q:1/4=100
K:Amaj
E|A>Bcc|dB c2|cBB (A/B/)|cBB (A/B/)|!
A>Bcc|dB c2|AFF (E/F/)|AFF||!
e|faef|d/c/B/A/ c2|cBB (A/B/)|cBB e|!
(fa)(ef)|d/c/B/A/ c>B|AFF (E/F/)|AFF|]

